X: 341
%
T: Lord Blantyres
C:
O:Scotland
B:Keith Norman MacDonald : "The Skye collection of the best reels & strathspeys extant" : 1887
Z:Ralph Palmer
R:Strathspey
M:C
L:1/8
K:A
e | (c/2d/2e) (A<e) c<e a2 | f<d =g2 B<GG>B | (c/2d/2e) (A<e) c<ea>f | =g>dB<e c<AA:|
e | (c/2d/2e) a2 (ag).f.e | B<d =g2 (B<G)G>B | (c/2d/2e) a2 g<b a2 | e>ag>b a<AA>e |
(c/2d/2e) a2 (ag).f.e a2 | B<d =g2 (B<G)G<B | c>ed>f e>=gf>a | ^g>ea<e cAA |]


